join/src/img-showtell.svg

<svg clip-rule="evenodd" fill-rule="evenodd" stroke-linejoin="round" stroke-miterlimit="2" viewBox="0 0 100 30" xmlns="http://www.w3.org/2000/svg"><path d="m80.641 28.908c0-1.505-.663-2.947-1.841-4.011-1.179-1.064-2.777-1.661-4.444-1.661h-60.968c-1.667 0-3.265.597-4.444 1.661s-1.841 2.506-1.841 4.011v42.184c0 1.505.662 2.947 1.841 4.011s2.777 1.661 4.444 1.661h60.968c1.667 0 3.265-.597 4.444-1.661 1.178-1.064 1.841-2.506 1.841-4.011z" transform="matrix(.376067 0 0 .416689 33.5012 -2.9867)"/><path d="m60.433 16.721h-3.398s-4.152-3.023-6.076-4.425c-.571-.415-1.347-.415-1.918 0-1.926 1.402-6.081 4.425-6.081 4.425h-3.395s5.504-4.006 8.517-6.2c1.142-.832 2.694-.832 3.836 0 3.013 2.194 8.515 6.2 8.515 6.2z" transform="matrix(.72776 0 0 .731529 13.612 -6.23994)"/><path d="m80.641 28.908c0-3.133-2.533-5.672-5.657-5.672h-62.224c-3.124 0-5.657 2.539-5.657 5.672v42.184c0 3.133 2.533 5.672 5.657 5.672h62.224c3.124 0 5.657-2.539 5.657-5.672z" fill="#fff" transform="matrix(.417804 0 0 .416689 31.6702 -4.44976)"/><path d="m13.222 32.537s-6.443 6.437-9.534 9.525c-.271.271-.352.678-.205 1.032.146.353.491.584.874.584h8.865z" transform="matrix(.990923 0 0 .990923 2.85074 -17.2815)"/><circle cx="15.952715532" cy="16.999936862" fill="#fff" r="9.000039006" stroke-width=".807106"/><path d="m14 30.496c0-.132-.052-.258-.145-.351s-.219-.145-.351-.145h-.646c-1.026 0-1.858.832-1.858 1.859v1.282c0 1.027.832 1.859 1.858 1.859h.646c.132 0 .258-.052.351-.145s.145-.219.145-.351z" transform="matrix(.807106 0 0 .807106 2.57453 -7.89541)"/><path d="m15 31.564c0-1.644.642-3.223 1.789-4.401.135-.139.211-.324.211-.518v-2.23c0-.229.186-.415.415-.415h.002c.42 0 .822.167 1.119.464s.464.699.464 1.119v3.417h3.029c.257 0 .504.102.687.285.182.182.284.429.284.686v.001c0 1.677-.234 3.346-.694 4.959-.021.07-.04.139-.059.205-.146.512-.614.864-1.145.864h-3.624c-1.369 0-2.478-1.109-2.478-2.478z" transform="matrix(.807106 0 0 .807106 2.57453 -7.89541)"/><path d="m13.222 32.537s-6.443 6.437-9.534 9.525c-.271.271-.352.678-.205 1.032.146.353.491.584.874.584h8.865z" transform="matrix(-.990923 0 0 .990923 97.1493 -17.2815)"/><circle cx="13.222" cy="32.527" fill="#fff" r="11.151" transform="matrix(-.807106 0 0 .807106 94.7188 -9.2528)"/><path d="m.137-.218-.004-.165h.046c.034 0 .065-.003.093-.009s.05-.018.067-.035.025-.043.025-.076c0-.032-.01-.057-.029-.076-.019-.018-.045-.027-.077-.027-.033 0-.059.009-.078.027-.019.019-.028.044-.028.075h-.121c-.001-.04.008-.076.026-.107s.044-.056.078-.074c.035-.018.076-.027.124-.027.045 0 .084.008.118.025.035.017.062.04.081.072.02.03.03.068.03.113 0 .046-.01.084-.031.114-.02.03-.048.052-.082.067-.036.015-.076.022-.122.023l-.003.08z" transform="matrix(15.0042 0 0 15.0042 80.8264 22.4813)"/><path d="m.194.007c-.023 0-.043-.007-.058-.022s-.022-.032-.022-.053.007-.039.022-.054.035-.022.058-.022.042.007.057.022.022.033.022.054-.007.038-.022.053-.034.022-.057.022z" transform="matrix(15.0042 0 0 15.0042 80.8264 22.4813)"/><path d="m43.528 15c0-3.572 2.9-6.472 6.472-6.472s6.472 2.9 6.472 6.472z" fill="#fc293d" transform="matrix(1.46069 0 0 1.46069 -23.0345 -.645482)"/><path d="m43.528 15c0-3.572 2.9-6.472 6.472-6.472s6.472 2.9 6.472 6.472z" fill="#ffdb45" transform="matrix(1.09552 0 0 1.09552 -4.77597 4.83208)"/><path d="m43.528 15c0-3.572 2.9-6.472 6.472-6.472s6.472 2.9 6.472 6.472z" fill="#00d659" transform="matrix(.730345 0 0 .730345 13.4827 10.3096)"/><path d="m43.528 15c0-3.572 2.9-6.472 6.472-6.472s6.472 2.9 6.472 6.472z" fill="#6055ff" transform="matrix(.365173 0 0 .365173 31.7413 15.7872)"/></svg>

<?xml version="1.0" encoding="UTF-8" standalone="no"?>
<!DOCTYPE svg PUBLIC "-//W3C//DTD SVG 1.1//EN" "http://www.w3.org/Graphics/SVG/1.1/DTD/svg11.dtd">
<svg width="100%" height="100%" viewBox="0 0 100 30" version="1.1" xmlns="http://www.w3.org/2000/svg" xmlns:xlink="http://www.w3.org/1999/xlink" xml:space="preserve" xmlns:serif="http://www.serif.com/" style="fill-rule:evenodd;clip-rule:evenodd;stroke-linejoin:round;stroke-miterlimit:2;">
    <g transform="matrix(0.376067,0,0,0.416689,33.5012,-2.9867)">
        <path d="M80.641,28.908C80.641,27.403 79.978,25.961 78.8,24.897C77.621,23.833 76.023,23.236 74.356,23.236L13.388,23.236C11.721,23.236 10.123,23.833 8.944,24.897C7.765,25.961 7.103,27.403 7.103,28.908L7.103,71.092C7.103,72.597 7.765,74.039 8.944,75.103C10.123,76.167 11.721,76.764 13.388,76.764L74.356,76.764C76.023,76.764 77.621,76.167 78.8,75.103C79.978,74.039 80.641,72.597 80.641,71.092L80.641,28.908Z"/>
    </g>
    <g transform="matrix(0.72776,0,0,0.731529,13.612,-6.23994)">
        <path d="M60.433,16.721L57.035,16.721C57.035,16.721 52.883,13.698 50.959,12.296C50.388,11.881 49.612,11.881 49.041,12.296C47.115,13.698 42.96,16.721 42.96,16.721L39.565,16.721C39.565,16.721 45.069,12.715 48.082,10.521C49.224,9.689 50.776,9.689 51.918,10.521C54.931,12.715 60.433,16.721 60.433,16.721Z"/>
    </g>
    <g transform="matrix(0.417804,0,0,0.416689,31.6702,-4.44976)">
        <path d="M80.641,28.908C80.641,25.775 78.108,23.236 74.984,23.236L12.76,23.236C9.636,23.236 7.103,25.775 7.103,28.908L7.103,71.092C7.103,74.225 9.636,76.764 12.76,76.764L74.984,76.764C78.108,76.764 80.641,74.225 80.641,71.092L80.641,28.908Z" style="fill:white;"/>
    </g>
    <g transform="matrix(0.990923,0,0,0.990923,2.85074,-17.2815)">
        <path d="M13.222,32.537C13.222,32.537 6.779,38.974 3.688,42.062C3.417,42.333 3.336,42.74 3.483,43.094C3.629,43.447 3.974,43.678 4.357,43.678L13.222,43.678L13.222,32.537Z"/>
    </g>
    <g transform="matrix(0.807106,0,0,0.807106,5.28116,-9.2528)">
        <circle cx="13.222" cy="32.527" r="11.151" style="fill:white;"/>
    </g>
    <g transform="matrix(0.807106,0,0,0.807106,2.57453,-7.89541)">
        <path d="M14,30.496C14,30.364 13.948,30.238 13.855,30.145C13.762,30.052 13.636,30 13.504,30L12.858,30C11.832,30 11,30.832 11,31.859L11,33.141C11,34.168 11.832,35 12.858,35L13.504,35C13.636,35 13.762,34.948 13.855,34.855C13.948,34.762 14,34.636 14,34.504L14,30.496Z"/>
    </g>
    <g transform="matrix(0.807106,0,0,0.807106,2.57453,-7.89541)">
        <path d="M15,31.564C15,29.92 15.642,28.341 16.789,27.163C16.924,27.024 17,26.839 17,26.645L17,24.415C17,24.186 17.186,24 17.415,24L17.417,24C17.837,24 18.239,24.167 18.536,24.464C18.833,24.761 19,25.163 19,25.583L19,29L22.029,29C22.286,29 22.533,29.102 22.716,29.285C22.898,29.467 23,29.714 23,29.971L23,29.972C23,31.649 22.766,33.318 22.306,34.931C22.285,35.001 22.266,35.07 22.247,35.136C22.101,35.648 21.633,36 21.102,36L17.478,36C16.109,36 15,34.891 15,33.522L15,31.564Z"/>
    </g>
    <g transform="matrix(-0.990923,0,0,0.990923,97.1493,-17.2815)">
        <path d="M13.222,32.537C13.222,32.537 6.779,38.974 3.688,42.062C3.417,42.333 3.336,42.74 3.483,43.094C3.629,43.447 3.974,43.678 4.357,43.678L13.222,43.678L13.222,32.537Z"/>
    </g>
    <g transform="matrix(-0.807106,0,0,0.807106,94.7188,-9.2528)">
        <circle cx="13.222" cy="32.527" r="11.151" style="fill:white;"/>
    </g>
    <g transform="matrix(15.0042,0,0,15.0042,80.8264,22.4813)">
        <path d="M0.137,-0.218L0.133,-0.383L0.179,-0.383C0.213,-0.383 0.244,-0.386 0.272,-0.392C0.3,-0.398 0.322,-0.41 0.339,-0.427C0.356,-0.444 0.364,-0.47 0.364,-0.503C0.364,-0.535 0.354,-0.56 0.335,-0.579C0.316,-0.597 0.29,-0.606 0.258,-0.606C0.225,-0.606 0.199,-0.597 0.18,-0.579C0.161,-0.56 0.152,-0.535 0.152,-0.504L0.031,-0.504C0.03,-0.544 0.039,-0.58 0.057,-0.611C0.075,-0.642 0.101,-0.667 0.135,-0.685C0.17,-0.703 0.211,-0.712 0.259,-0.712C0.304,-0.712 0.343,-0.704 0.377,-0.687C0.412,-0.67 0.439,-0.647 0.458,-0.615C0.478,-0.585 0.488,-0.547 0.488,-0.502C0.488,-0.456 0.478,-0.418 0.457,-0.388C0.437,-0.358 0.409,-0.336 0.375,-0.321C0.339,-0.306 0.299,-0.299 0.253,-0.298L0.25,-0.218L0.137,-0.218Z"/>
    </g>
    <g transform="matrix(15.0042,0,0,15.0042,80.8264,22.4813)">
        <path d="M0.194,0.007C0.171,0.007 0.151,0 0.136,-0.015C0.121,-0.03 0.114,-0.047 0.114,-0.068C0.114,-0.089 0.121,-0.107 0.136,-0.122C0.151,-0.137 0.171,-0.144 0.194,-0.144C0.217,-0.144 0.236,-0.137 0.251,-0.122C0.266,-0.107 0.273,-0.089 0.273,-0.068C0.273,-0.047 0.266,-0.03 0.251,-0.015C0.236,0 0.217,0.007 0.194,0.007Z"/>
    </g>
    <g transform="matrix(1.46069,0,0,1.46069,-23.0345,-0.645482)">
        <path d="M43.528,15C43.528,11.428 46.428,8.528 50,8.528C53.572,8.528 56.472,11.428 56.472,15L43.528,15Z" style="fill:rgb(252,41,61);"/>
    </g>
    <g transform="matrix(1.09552,0,0,1.09552,-4.77597,4.83208)">
        <path d="M43.528,15C43.528,11.428 46.428,8.528 50,8.528C53.572,8.528 56.472,11.428 56.472,15L43.528,15Z" style="fill:rgb(255,219,69);"/>
    </g>
    <g transform="matrix(0.730345,0,0,0.730345,13.4827,10.3096)">
        <path d="M43.528,15C43.528,11.428 46.428,8.528 50,8.528C53.572,8.528 56.472,11.428 56.472,15L43.528,15Z" style="fill:rgb(0,214,89);"/>
    </g>
    <g transform="matrix(0.365173,0,0,0.365173,31.7413,15.7872)">
        <path d="M43.528,15C43.528,11.428 46.428,8.528 50,8.528C53.572,8.528 56.472,11.428 56.472,15L43.528,15Z" style="fill:rgb(96,85,255);"/>
    </g>
</svg>
